X: 1816
T: Ard Aoibhinn
R: reel
M: 4/4
K: Edorian
B,EED EFGA|(3Bcd AG FDED|B,EFD EBde|fedf e2ef|
edBA GABG|A2BA GEEF|G2EG FEDA,|1 B,EED E3D:|2 B,EED E3F||
G2EF GABG|AGBA GEEF|GBEF GAde|fedf e2ef|
edBA GABG|AABA GEEF|G2FG FEDA,|1 B,EED E3F:|2 B,EED E3D||

